assets/icons/qvision/phone_iphone.svg

<svg xmlns="http://www.w3.org/2000/svg" height="24" viewBox="0 0 24 24" width="24"><path d="M0 0h24v24H0z" fill="none"/><path d="M15.5 1h-8C6.12 1 5 2.12 5 3.5v17C5 21.88 6.12 23 7.5 23h8c1.38 0 2.5-1.12 2.5-2.5v-17C18 2.12 16.88 1 15.5 1zm-4 21c-.83 0-1.5-.67-1.5-1.5s.67-1.5 1.5-1.5 1.5.67 1.5 1.5-.67 1.5-1.5 1.5zm4.5-4H7V4h9v14z"/></svg>

<svg width="24" height="24" viewBox="0 0 24 24" fill="none" xmlns="http://www.w3.org/2000/svg">
<g clip-path="url(#clip0_147_3040)">
<path d="M15.5 1H7.5C6.12 1 5 2.12 5 3.5V20.5C5 21.88 6.12 23 7.5 23H15.5C16.88 23 18 21.88 18 20.5V3.5C18 2.12 16.88 1 15.5 1ZM11.5 22C10.67 22 10 21.33 10 20.5C10 19.67 10.67 19 11.5 19C12.33 19 13 19.67 13 20.5C13 21.33 12.33 22 11.5 22ZM16 18H7V4H16V18Z" fill="#323232"/>
</g>
<defs>
<clipPath id="clip0_147_3040">
<rect width="24" height="24" fill="white"/>
</clipPath>
</defs>
</svg>
